Newaita-dark/apps/22/dragonplayer.svg

<?xml version="1.0" encoding="UTF-8"?>
<svg xmlns="http://www.w3.org/2000/svg" xmlns:xlink="http://www.w3.org/1999/xlink" width="22pt" height="22pt" viewBox="0 0 22 22" version="1.1">
<defs>
<linearGradient id="linear0" gradientUnits="userSpaceOnUse" x1="254" y1="233.5" x2="254" y2="254.666672" gradientTransform="matrix(0.0429729,0,0,0.0429729,-0.00000262285,9.239165)">
<stop offset="0" style="stop-color:rgb(0%,0%,0%);stop-opacity:0.27451;"/>
<stop offset="1" style="stop-color:rgb(0%,0%,0%);stop-opacity:0;"/>
</linearGradient>
<radialGradient id="radial0" gradientUnits="userSpaceOnUse" cx="450.908936" cy="189.579361" fx="450.908936" fy="189.579361" r="21.166656" gradientTransform="matrix(0.000000119742,-0.0537161,-0.0966889,-0.0000000698078,36.522014,43.721791)">
<stop offset="0" style="stop-color:rgb(0%,0%,0%);stop-opacity:0.313725;"/>
<stop offset="0.222222" style="stop-color:rgb(0%,0%,0%);stop-opacity:0.27451;"/>
<stop offset="1" style="stop-color:rgb(0%,0%,0%);stop-opacity:0;"/>
</radialGradient>
<radialGradient id="radial1" gradientUnits="userSpaceOnUse" cx="450.908936" cy="189.579361" fx="450.908936" fy="189.579361" r="21.166656" gradientTransform="matrix(-0.000000119742,0.0537161,0.0966889,0.0000000698078,-14.578108,-5.175142)">
<stop offset="0" style="stop-color:rgb(0%,0%,0%);stop-opacity:0.313725;"/>
<stop offset="0.222222" style="stop-color:rgb(0%,0%,0%);stop-opacity:0.27451;"/>
<stop offset="1" style="stop-color:rgb(0%,0%,0%);stop-opacity:0;"/>
</radialGradient>
<radialGradient id="radial2" gradientUnits="userSpaceOnUse" cx="450.908936" cy="189.579361" fx="450.908936" fy="189.579361" r="21.166656" gradientTransform="matrix(-0.000000119742,-0.0537161,0.0966889,-0.0000000698078,-14.578108,43.721791)">
<stop offset="0" style="stop-color:rgb(0%,0%,0%);stop-opacity:0.313725;"/>
<stop offset="0.222222" style="stop-color:rgb(0%,0%,0%);stop-opacity:0.27451;"/>
<stop offset="1" style="stop-color:rgb(0%,0%,0%);stop-opacity:0;"/>
</radialGradient>
<radialGradient id="radial3" gradientUnits="userSpaceOnUse" cx="450.908936" cy="189.579361" fx="450.908936" fy="189.579361" r="21.166656" gradientTransform="matrix(0.000000119742,0.0537161,-0.0966889,0.0000000698078,36.522013,-5.175142)">
<stop offset="0" style="stop-color:rgb(0%,0%,0%);stop-opacity:0.313725;"/>
<stop offset="0.222222" style="stop-color:rgb(0%,0%,0%);stop-opacity:0.27451;"/>
<stop offset="1" style="stop-color:rgb(0%,0%,0%);stop-opacity:0;"/>
</radialGradient>
<linearGradient id="linear1" gradientUnits="userSpaceOnUse" x1="254" y1="233.5" x2="254" y2="-168.666656" gradientTransform="matrix(0.0429729,0,0,0.0429729,0,9.239163)">
<stop offset="0" style="stop-color:rgb(14.901961%,65.098039%,60.392157%);stop-opacity:1;"/>
<stop offset="1" style="stop-color:rgb(30.196078%,71.372549%,67.45098%);stop-opacity:1;"/>
</linearGradient>
<linearGradient id="linear2" gradientUnits="userSpaceOnUse" x1="370.416656" y1="159.416672" x2="370.416656" y2="180.583328" gradientTransform="matrix(1,0,0,1,0,10.583338)">
<stop offset="0" style="stop-color:rgb(87.843137%,87.843137%,87.843137%);stop-opacity:1;"/>
<stop offset="1" style="stop-color:rgb(98.039216%,98.039216%,98.039216%);stop-opacity:1;"/>
</linearGradient>
<linearGradient id="linear3" gradientUnits="userSpaceOnUse" x1="211.666672" y1="159.416672" x2="211.666672" y2="180.583328" gradientTransform="matrix(1,0,0,1,0,10.583338)">
<stop offset="0" style="stop-color:rgb(89.803922%,22.352941%,20.784314%);stop-opacity:1;"/>
<stop offset="1" style="stop-color:rgb(93.72549%,32.54902%,31.372549%);stop-opacity:1;"/>
</linearGradient>
<linearGradient id="linear4" gradientUnits="userSpaceOnUse" x1="285.75" y1="138.25" x2="285.75" y2="201.75" gradientTransform="matrix(1,0,0,1,26.458323,10.583338)">
<stop offset="0" style="stop-color:rgb(87.843137%,87.843137%,87.843137%);stop-opacity:1;"/>
<stop offset="1" style="stop-color:rgb(98.039216%,98.039216%,98.039216%);stop-opacity:1;"/>
</linearGradient>
<linearGradient id="linear5" gradientUnits="userSpaceOnUse" x1="254" y1="53.583332" x2="254" y2="-105.166656" gradientTransform="matrix(0.0429729,0,0,0.0429729,-0.229619,9.354117)">
<stop offset="0" style="stop-color:rgb(87.843137%,87.843137%,87.843137%);stop-opacity:1;"/>
<stop offset="1" style="stop-color:rgb(96.078431%,96.078431%,96.078431%);stop-opacity:1;"/>
</linearGradient>
</defs>
<g id="surface1">
<path style=" stroke:none;fill-rule:nonzero;fill:url(#linear0);" d="M 3.523438 19.273438 L 18.417969 19.273438 L 18.417969 20.183594 L 3.523438 20.183594 Z M 3.523438 19.273438 "/>
<path style=" stroke:none;fill-rule:nonzero;fill:url(#radial0);" d="M 18.417969 19.273438 L 20.238281 19.273438 L 20.238281 18.363281 L 18.417969 18.363281 Z M 18.417969 19.273438 "/>
<path style=" stroke:none;fill-rule:nonzero;fill:url(#radial1);" d="M 3.523438 19.273438 L 1.707031 19.273438 L 1.707031 20.183594 L 3.523438 20.183594 Z M 3.523438 19.273438 "/>
<path style=" stroke:none;fill-rule:nonzero;fill:url(#radial2);" d="M 3.523438 19.273438 L 1.707031 19.273438 L 1.707031 18.363281 L 3.523438 18.363281 Z M 3.523438 19.273438 "/>
<path style=" stroke:none;fill-rule:nonzero;fill:url(#radial3);" d="M 18.417969 19.273438 L 20.238281 19.273438 L 20.238281 20.183594 L 18.417969 20.183594 Z M 18.417969 19.273438 "/>
<path style=" stroke:none;fill-rule:nonzero;fill:url(#linear1);" d="M 2.273438 1.992188 L 19.554688 1.992188 C 20.058594 1.992188 20.464844 2.398438 20.464844 2.902344 L 20.464844 18.363281 C 20.464844 18.867188 20.058594 19.273438 19.554688 19.273438 L 2.273438 19.273438 C 1.773438 19.273438 1.363281 18.867188 1.363281 18.363281 L 1.363281 2.902344 C 1.363281 2.398438 1.773438 1.992188 2.273438 1.992188 Z M 2.273438 1.992188 "/>
<path style="fill-rule:nonzero;fill:url(#linear2);stroke-width:3;stroke-linecap:round;stroke-linejoin:miter;stroke:rgb(12.941177%,12.941177%,12.941177%);stroke-opacity:1;stroke-miterlimit:4;" d="M 74.083834 169.963238 L 433.958559 169.963238 C 439.776185 169.963238 444.503007 174.78096 444.503007 180.598586 C 444.503007 186.416212 439.776185 191.143033 433.958559 191.143033 L 74.083834 191.143033 C 68.266208 191.143033 63.539387 186.416212 63.539387 180.598586 C 63.539387 174.78096 68.266208 169.963238 74.083834 169.963238 Z M 74.083834 169.963238 " transform="matrix(0.0429729,0,0,0.0429729,0,9.239163)"/>
<path style="fill-rule:nonzero;fill:url(#linear3);stroke-width:3;stroke-linecap:round;stroke-linejoin:miter;stroke:rgb(12.941177%,12.941177%,12.941177%);stroke-opacity:1;stroke-miterlimit:4;" d="M 74.083834 169.963238 L 338.694929 169.963238 C 344.512555 169.963238 349.239377 174.326458 349.239377 179.598681 L 349.239377 181.59849 C 349.239377 186.870714 344.512555 191.143033 338.694929 191.143033 L 74.083834 191.143033 C 68.266208 191.143033 63.539387 186.870714 63.539387 181.59849 L 63.539387 179.598681 C 63.539387 174.326458 68.266208 169.963238 74.083834 169.963238 Z M 74.083834 169.963238 " transform="matrix(0.0429729,0,0,0.0429729,0,9.239163)"/>
<path style="fill-rule:nonzero;fill:url(#linear4);stroke-width:3;stroke-linecap:round;stroke-linejoin:miter;stroke:rgb(12.941177%,12.941177%,12.941177%);stroke-opacity:1;stroke-miterlimit:4;" d="M 322.787357 148.874343 C 340.331136 148.874343 354.5116 163.054807 354.5116 180.598586 C 354.5116 198.142365 340.331136 212.322829 322.787357 212.322829 C 305.243578 212.322829 291.063114 198.142365 291.063114 180.598586 C 291.063114 163.054807 305.243578 148.874343 322.787357 148.874343 Z M 322.787357 148.874343 " transform="matrix(0.0429729,0,0,0.0429729,0,9.239163)"/>
<path style=" stroke:none;fill-rule:nonzero;fill:rgb(100%,100%,100%);fill-opacity:0.392157;" d="M 2.273438 1.992188 C 1.769531 1.992188 1.363281 2.398438 1.363281 2.902344 L 1.363281 3.128906 C 1.363281 2.625 1.769531 2.21875 2.273438 2.21875 L 19.554688 2.21875 C 20.058594 2.21875 20.464844 2.625 20.464844 3.128906 L 20.464844 2.902344 C 20.464844 2.398438 20.058594 1.992188 19.554688 1.992188 Z M 2.273438 1.992188 "/>
<path style=" stroke:none;fill-rule:nonzero;fill:rgb(0%,0%,0%);fill-opacity:0.235294;" d="M 2.273438 19.273438 C 1.769531 19.273438 1.363281 18.867188 1.363281 18.363281 L 1.363281 18.136719 C 1.363281 18.640625 1.769531 19.046875 2.273438 19.046875 L 19.554688 19.046875 C 20.058594 19.046875 20.464844 18.640625 20.464844 18.136719 L 20.464844 18.363281 C 20.464844 18.867188 20.058594 19.273438 19.554688 19.273438 Z M 2.273438 19.273438 "/>
<path style=" stroke:none;fill-rule:nonzero;fill:url(#linear5);" d="M 8.882812 4.835938 C 8.625 4.828125 8.414062 5.035156 8.414062 5.289062 L 8.414062 11.203125 C 8.414062 11.550781 8.792969 11.769531 9.097656 11.589844 L 14.097656 8.636719 C 14.394531 8.460938 14.394531 8.03125 14.097656 7.855469 L 9.097656 4.898438 C 9.03125 4.863281 8.957031 4.839844 8.882812 4.835938 Z M 8.882812 4.835938 "/>
<path style=" stroke:none;fill-rule:nonzero;fill:rgb(100%,100%,100%);fill-opacity:0.588235;" d="M 8.859375 4.835938 C 8.613281 4.839844 8.414062 5.042969 8.414062 5.289062 L 8.414062 5.515625 C 8.414062 5.257812 8.625 5.054688 8.882812 5.0625 C 8.957031 5.066406 9.03125 5.085938 9.097656 5.125 L 14.097656 8.082031 C 14.210938 8.148438 14.28125 8.246094 14.308594 8.359375 C 14.355469 8.175781 14.285156 7.964844 14.097656 7.855469 L 9.097656 4.898438 C 9.03125 4.863281 8.957031 4.839844 8.882812 4.835938 C 8.875 4.835938 8.867188 4.835938 8.859375 4.835938 Z M 8.859375 4.835938 "/>
<path style=" stroke:none;fill-rule:nonzero;fill:rgb(0%,0%,0%);fill-opacity:0.235294;" d="M 8.859375 11.65625 C 8.613281 11.652344 8.414062 11.453125 8.414062 11.203125 L 8.414062 10.980469 C 8.414062 11.234375 8.625 11.441406 8.882812 11.429688 C 8.957031 11.429688 9.03125 11.40625 9.097656 11.367188 L 14.097656 8.414062 C 14.210938 8.347656 14.28125 8.246094 14.308594 8.136719 C 14.355469 8.320312 14.285156 8.527344 14.097656 8.636719 L 9.097656 11.59375 C 9.03125 11.632812 8.957031 11.652344 8.882812 11.65625 C 8.875 11.65625 8.867188 11.65625 8.859375 11.65625 Z M 8.859375 11.65625 "/>
<path style=" stroke:none;fill-rule:nonzero;fill:rgb(12.941177%,12.941177%,12.941177%);fill-opacity:1;" d="M 8.882812 4.773438 C 8.59375 4.761719 8.347656 5 8.347656 5.289062 L 8.347656 11.203125 C 8.347656 11.597656 8.789062 11.847656 9.128906 11.648438 L 14.132812 8.691406 C 14.46875 8.492188 14.46875 8 14.132812 7.800781 L 9.128906 4.84375 C 9.054688 4.800781 8.96875 4.777344 8.882812 4.773438 Z M 8.878906 4.902344 C 8.945312 4.902344 9.007812 4.921875 9.0625 4.957031 L 14.066406 7.910156 C 14.324219 8.0625 14.324219 8.429688 14.066406 8.578125 L 9.0625 11.535156 C 8.800781 11.691406 8.476562 11.503906 8.476562 11.203125 L 8.476562 5.289062 C 8.476562 5.070312 8.660156 4.894531 8.878906 4.902344 Z M 8.878906 4.902344 "/>
<path style=" stroke:none;fill-rule:nonzero;fill:rgb(0%,0%,0%);fill-opacity:0.470588;" d="M 1.363281 14.371094 L 20.464844 14.371094 L 20.464844 14.617188 L 1.363281 14.617188 Z M 1.363281 14.371094 "/>
<path style=" stroke:none;fill-rule:nonzero;fill:rgb(0%,0%,0%);fill-opacity:0.235294;" d="M 1.363281 14.15625 L 20.464844 14.15625 L 20.464844 14.390625 L 1.363281 14.390625 Z M 1.363281 14.15625 "/>
<path style=" stroke:none;fill-rule:nonzero;fill:rgb(97.254902%,97.254902%,97.254902%);fill-opacity:0.392157;" d="M 1.363281 14.613281 L 20.464844 14.613281 L 20.464844 14.84375 L 1.363281 14.84375 Z M 1.363281 14.613281 "/>
<path style=" stroke:none;fill-rule:nonzero;fill:rgb(12.941177%,12.941177%,12.941177%);fill-opacity:1;" d="M 2.273438 1.925781 C 1.734375 1.925781 1.300781 2.363281 1.300781 2.902344 L 1.300781 18.363281 C 1.300781 18.902344 1.734375 19.335938 2.273438 19.335938 L 19.554688 19.335938 C 20.09375 19.335938 20.53125 18.902344 20.53125 18.363281 L 20.53125 2.902344 C 20.53125 2.363281 20.09375 1.925781 19.554688 1.925781 Z M 2.273438 2.054688 L 19.554688 2.054688 C 20.027344 2.054688 20.402344 2.429688 20.402344 2.902344 L 20.402344 18.363281 C 20.402344 18.832031 20.027344 19.207031 19.554688 19.207031 L 2.273438 19.207031 C 1.804688 19.207031 1.429688 18.832031 1.429688 18.363281 L 1.429688 2.902344 C 1.429688 2.429688 1.804688 2.054688 2.273438 2.054688 Z M 2.273438 2.054688 "/>
</g>
</svg>

<svg xmlns="http://www.w3.org/2000/svg" width="22pt" height="22pt" viewBox="0 0 22 22"><defs><linearGradient id="a" gradientUnits="userSpaceOnUse" x1="254" y1="233.5" x2="254" y2="254.667" gradientTransform="matrix(.04297 0 0 .04297 0 9.24)"><stop offset="0" stop-opacity=".275"/><stop offset="1" stop-opacity="0"/></linearGradient><radialGradient id="b" gradientUnits="userSpaceOnUse" cx="450.909" cy="189.579" fx="450.909" fy="189.579" r="21.167" gradientTransform="matrix(0 -.05372 -.09669 0 36.522 43.722)"><stop offset="0" stop-opacity=".314"/><stop offset=".222" stop-opacity=".275"/><stop offset="1" stop-opacity="0"/></radialGradient><radialGradient id="c" gradientUnits="userSpaceOnUse" cx="450.909" cy="189.579" fx="450.909" fy="189.579" r="21.167" gradientTransform="matrix(0 .05372 .09669 0 -14.578 -5.175)"><stop offset="0" stop-opacity=".314"/><stop offset=".222" stop-opacity=".275"/><stop offset="1" stop-opacity="0"/></radialGradient><radialGradient id="d" gradientUnits="userSpaceOnUse" cx="450.909" cy="189.579" fx="450.909" fy="189.579" r="21.167" gradientTransform="matrix(0 -.05372 .09669 0 -14.578 43.722)"><stop offset="0" stop-opacity=".314"/><stop offset=".222" stop-opacity=".275"/><stop offset="1" stop-opacity="0"/></radialGradient><radialGradient id="e" gradientUnits="userSpaceOnUse" cx="450.909" cy="189.579" fx="450.909" fy="189.579" r="21.167" gradientTransform="matrix(0 .05372 -.09669 0 36.522 -5.175)"><stop offset="0" stop-opacity=".314"/><stop offset=".222" stop-opacity=".275"/><stop offset="1" stop-opacity="0"/></radialGradient><linearGradient id="f" gradientUnits="userSpaceOnUse" x1="254" y1="233.5" x2="254" y2="-168.667" gradientTransform="matrix(.04297 0 0 .04297 0 9.24)"><stop offset="0" stop-color="#26a69a"/><stop offset="1" stop-color="#4db6ac"/></linearGradient><linearGradient id="g" gradientUnits="userSpaceOnUse" x1="370.417" y1="159.417" x2="370.417" y2="180.583" gradientTransform="translate(0 10.583)"><stop offset="0" stop-color="#e0e0e0"/><stop offset="1" stop-color="#fafafa"/></linearGradient><linearGradient id="h" gradientUnits="userSpaceOnUse" x1="211.667" y1="159.417" x2="211.667" y2="180.583" gradientTransform="translate(0 10.583)"><stop offset="0" stop-color="#e53935"/><stop offset="1" stop-color="#ef5350"/></linearGradient><linearGradient id="i" gradientUnits="userSpaceOnUse" x1="285.75" y1="138.25" x2="285.75" y2="201.75" gradientTransform="translate(26.458 10.583)"><stop offset="0" stop-color="#e0e0e0"/><stop offset="1" stop-color="#fafafa"/></linearGradient><linearGradient id="j" gradientUnits="userSpaceOnUse" x1="254" y1="53.583" x2="254" y2="-105.167" gradientTransform="matrix(.04297 0 0 .04297 -.23 9.354)"><stop offset="0" stop-color="#e0e0e0"/><stop offset="1" stop-color="#f5f5f5"/></linearGradient></defs><path d="M3.523 19.273h14.895v.91H3.523zm0 0" fill="url(#a)"/><path d="M18.418 19.273h1.82v-.91h-1.82zm0 0" fill="url(#b)"/><path d="M3.523 19.273H1.707v.91h1.816zm0 0" fill="url(#c)"/><path d="M3.523 19.273H1.707v-.91h1.816zm0 0" fill="url(#d)"/><path d="M18.418 19.273h1.82v.91h-1.82zm0 0" fill="url(#e)"/><path d="M2.273 1.992h17.282c.504 0 .91.406.91.91v15.461c0 .504-.406.91-.91.91H2.273c-.5 0-.91-.406-.91-.91V2.903c0-.505.41-.91.91-.91zm0 0" fill="url(#f)"/><path d="M74.084 169.963h359.875c5.817 0 10.544 4.818 10.544 10.636 0 5.817-4.727 10.544-10.544 10.544H74.084c-5.818 0-10.545-4.727-10.545-10.544 0-5.818 4.727-10.636 10.545-10.636zm0 0" transform="matrix(.04297 0 0 .04297 0 9.24)" fill="url(#g)" stroke-width="3" stroke-linecap="round" stroke="#212121"/><path d="M74.084 169.963h264.61c5.819 0 10.545 4.363 10.545 9.636v2c0 5.272-4.726 9.544-10.544 9.544H74.084c-5.818 0-10.545-4.272-10.545-9.545v-2c0-5.272 4.727-9.635 10.545-9.635zm0 0" transform="matrix(.04297 0 0 .04297 0 9.24)" fill="url(#h)" stroke-width="3" stroke-linecap="round" stroke="#212121"/><path d="M322.787 148.874c17.544 0 31.725 14.18 31.725 31.725 0 17.543-14.18 31.724-31.725 31.724-17.543 0-31.724-14.18-31.724-31.724s14.18-31.725 31.724-31.725zm0 0" transform="matrix(.04297 0 0 .04297 0 9.24)" fill="url(#i)" stroke-width="3" stroke-linecap="round" stroke="#212121"/><path d="M2.273 1.992a.909.909 0 0 0-.91.91v.227c0-.504.407-.91.91-.91h17.282c.504 0 .91.406.91.91v-.227a.909.909 0 0 0-.91-.91zm0 0" fill="#fff" fill-opacity=".392"/><path d="M2.273 19.273a.909.909 0 0 1-.91-.91v-.226c0 .504.407.91.91.91h17.282c.504 0 .91-.406.91-.91v.226c0 .504-.406.91-.91.91zm0 0" fill-opacity=".235"/><path d="M8.883 4.836a.455.455 0 0 0-.469.453v5.914c0 .348.379.567.684.387l5-2.953a.454.454 0 0 0 0-.782l-5-2.957a.524.524 0 0 0-.215-.062zm0 0" fill="url(#j)"/><path d="M8.86 4.836a.454.454 0 0 0-.446.453v.227a.452.452 0 0 1 .684-.391l5 2.957a.436.436 0 0 1 .21.277.452.452 0 0 0-.21-.504l-5-2.957a.524.524 0 0 0-.215-.062h-.024zm0 0" fill="#fff" fill-opacity=".588"/><path d="M8.86 11.656a.452.452 0 0 1-.446-.453v-.223c0 .254.211.461.469.45a.428.428 0 0 0 .215-.063l5-2.953a.446.446 0 0 0 .21-.277.447.447 0 0 1-.21.5l-5 2.957a.471.471 0 0 1-.215.062h-.024zm0 0" fill-opacity=".235"/><path d="M8.883 4.773a.52.52 0 0 0-.535.516v5.914c0 .395.441.645.78.445l5.005-2.957a.52.52 0 0 0 0-.89L9.129 4.844a.543.543 0 0 0-.246-.07zm-.004.13c.066 0 .129.019.184.054l5.003 2.953a.385.385 0 0 1 0 .668l-5.004 2.957a.386.386 0 0 1-.585-.332V5.29c0-.219.183-.394.402-.387zm0 0" fill="#212121"/><path d="M1.363 14.371h19.102v.246H1.363zm0 0" fill-opacity=".471"/><path d="M1.363 14.156h19.102v.235H1.363zm0 0" fill-opacity=".235"/><path d="M1.363 14.613h19.102v.23H1.363zm0 0" fill="#f8f8f8" fill-opacity=".392"/><path d="M2.273 1.926a.974.974 0 0 0-.972.976v15.461c0 .54.433.973.972.973h17.282c.539 0 .976-.434.976-.973V2.903a.977.977 0 0 0-.976-.977zm0 .129h17.282c.472 0 .847.375.847.847v15.461a.841.841 0 0 1-.847.844H2.273a.84.84 0 0 1-.843-.844V2.903c0-.473.375-.848.843-.848zm0 0" fill="#212121"/></svg>
